images/icons/mang.svg

<?xml version="1.0" encoding="UTF-8"?>
<!DOCTYPE svg PUBLIC "-//W3C//DTD SVG 1.1//EN" "http://www.w3.org/Graphics/SVG/1.1/DTD/svg11.dtd">
<!-- Creator: CorelDRAW 2018 (64-Bit) -->
<svg xmlns="http://www.w3.org/2000/svg" xml:space="preserve" width="1.8284mm" height="1.8285mm" version="1.1" style="shape-rendering:geometricPrecision; text-rendering:geometricPrecision; image-rendering:optimizeQuality; fill-rule:evenodd; clip-rule:evenodd"
viewBox="0 0 2.32 2.32"
 xmlns:xlink="http://www.w3.org/1999/xlink">
 <defs>
  <style type="text/css">
   <![CDATA[
    .fil0 {fill:#767676}
   ]]>
  </style>
 </defs>
 <g id="Layer_x0020_1">
  <metadata id="CorelCorpID_0Corel-Layer"/>
  <path class="fil0" d="M1.16 0c-0.64,0 -1.16,0.52 -1.16,1.16 0,0.64 0.52,1.16 1.16,1.16 0.64,0 1.16,-0.52 1.16,-1.16 0,-0.64 -0.52,-1.16 -1.16,-1.16zm-0.31 2.17c-0.27,-0.08 -0.5,-0.28 -0.63,-0.53l-0.01 -0.01 0.37 0 0 0.01c0.03,0.11 0.07,0.21 0.12,0.31 0.04,0.08 0.09,0.15 0.16,0.21l0.03 0.02 -0.03 -0.01zm0.81 -0.65l-0.44 0 0 -0.72 0.45 0 0 0.01c0.02,0.11 0.03,0.23 0.03,0.34 0,0.12 -0.01,0.24 -0.03,0.36l-0 0.01zm-0.19 0.64c0.06,-0.06 0.11,-0.13 0.16,-0.21 0.05,-0.1 0.09,-0.2 0.12,-0.31l0 -0.01 0.37 0 -0.01 0.01c-0.13,0.26 -0.36,0.45 -0.63,0.53l-0.03 0.01 0.03 -0.02zm-0.89 -1.46l-0.36 0 0.01 -0.01c0.12,-0.24 0.34,-0.43 0.6,-0.52l0.03 -0.01 -0.02 0.02c-0.05,0.05 -0.09,0.12 -0.12,0.18 -0.06,0.11 -0.1,0.22 -0.12,0.33l-0 0.01zm0.53 0l-0.43 0 0 -0.01c0.05,-0.2 0.18,-0.51 0.41,-0.56l0.01 -0 0 0.58zm0 0.82l-0.44 0 -0 -0.01c-0.02,-0.12 -0.03,-0.24 -0.03,-0.36 0,-0.11 0.01,-0.23 0.03,-0.34l0 -0.01 0.45 0 0 0.72zm-0.01 0.66c-0.22,-0.05 -0.35,-0.34 -0.41,-0.54l-0 -0.01 0.42 0 0 0.56 -0.01 -0zm0.12 0l0 -0.56 0.42 0 -0 0.01c-0.05,0.2 -0.19,0.49 -0.41,0.54l-0.01 0zm0.29 -2.02c0.26,0.09 0.47,0.28 0.6,0.52l0.01 0.01 -0.36 0 -0 -0.01c-0.03,-0.12 -0.07,-0.23 -0.12,-0.33 -0.03,-0.06 -0.08,-0.13 -0.12,-0.18l-0.02 -0.02 0.03 0.01zm0.65 1.36l-0.39 -0 0 -0.01c0.02,-0.12 0.03,-0.24 0.03,-0.36 0,-0.11 -0.01,-0.23 -0.03,-0.34l-0 -0.01 0.38 0 0 0.01c0.04,0.11 0.06,0.23 0.06,0.35 0,0.12 -0.02,0.24 -0.06,0.35l-0 0.01zm-1.99 -0.01c-0.04,-0.11 -0.06,-0.23 -0.06,-0.35 0,-0.12 0.02,-0.24 0.06,-0.35l0 -0.01 0.38 0 -0 0.01c-0.02,0.11 -0.03,0.23 -0.03,0.34 0,0.12 0.01,0.24 0.03,0.36l0 0.01 -0.39 0 -0 -0.01zm1.47 -0.82l-0.43 0 0 -0.58 0.01 0c0.23,0.05 0.36,0.36 0.41,0.56l0 0.01z"/>
 </g>
</svg>

<svg xmlns="http://www.w3.org/2000/svg" width="6.91" height="6.911" viewBox="0 0 2.32 2.32" shape-rendering="geometricPrecision" text-rendering="geometricPrecision" image-rendering="optimizeQuality" fill-rule="evenodd" clip-rule="evenodd"><path d="M1.16 0a1.16 1.16 0 10.002 2.322A1.16 1.16 0 001.16 0zM.85 2.17c-.27-.08-.5-.28-.63-.53l-.01-.01h.37v.01c.03.11.07.21.12.31.04.08.09.15.16.21l.03.02-.03-.01zm.81-.65h-.44V.8h.45v.01c.02.11.03.23.03.34 0 .12-.01.24-.03.36v.01zm-.19.64c.06-.06.11-.13.16-.21.05-.1.09-.2.12-.31v-.01h.37l-.01.01c-.13.26-.36.45-.63.53l-.03.01.03-.02zM.58.7H.22L.23.69C.35.45.57.26.83.17L.86.16.84.18C.79.23.75.3.72.36.66.47.62.58.6.69V.7zm.53 0H.68V.69c.05-.2.18-.51.41-.56h.01v.58zm0 .82H.67v-.01c-.02-.12-.03-.24-.03-.36 0-.11.01-.23.03-.34V.8h.45v.72zm-.01.66c-.22-.05-.35-.34-.41-.54v-.01h.42v.56H1.1zm.12 0v-.56h.42v.01c-.05.2-.19.49-.41.54h-.01zM1.51.16c.26.09.47.28.6.52l.01.01h-.36V.68C1.73.56 1.69.45 1.64.35 1.61.29 1.56.22 1.52.17L1.5.15l.03.01zm.65 1.36h-.39v-.01c.02-.12.03-.24.03-.36 0-.11-.01-.23-.03-.34V.8h.38v.01a1.03 1.03 0 010 .7v.01zM.17 1.51a1.03 1.03 0 010-.7V.8h.38v.01c-.02.11-.03.23-.03.34 0 .12.01.24.03.36v.01H.16v-.01zM1.64.69h-.43V.11h.01c.23.05.36.36.41.56v.01z" fill="#767676"/></svg>
